X:1
T:Magnificat and Nunc Dimittis
T:MEIRION WYNN JONES
T:For the choir of St Mary's Priory Church, Abergavenny
T:The Second Service 
T:Magnificat and Nunc Dimittis
C:MEIRION WYNN JONES
%%score { ( 1 3 ) | ( 2 4 5 6 ) } { ( 7 11 ) | ( 8 9 10 12 ) }
L:1/8
Q:1/4=80
M:4/4
K:G
V:1 treble nm="Choir"
V:3 treble 
V:2 bass 
V:4 bass 
V:5 bass 
V:6 bass 
V:7 treble nm="Organ"
V:11 treble 
V:8 bass 
V:9 bass 
V:10 bass 
V:12 bass 
V:1
"^Andante tranquillo" z8 | z8 | z8 |"^Sop." z2!mp! (d^c)!<(! A3!<)! B | ed^cd!>)!!>(! B4 | %5
w: |||My _ soul doth|mag- ni- fy the Lord:|
 z2!<(! B^c d!<)!cBc | B2 B3 B^cA | B2!>(! B4!>)! z2 | z2 ^c2 d2 ec | B2 B4!<(! A2!<)! | %10
w: and my spi- rit hath re-|joic- éd in God my|Sa- viour.|For he hath re-|gard- ed the|
 d3 B BBAB |!>(! F2 A2!>)! z2 A^c | (^d2 e4)!<(! c2 | ^d2!<)! e4 A2 | A3!<(! A B2!<)! c2- | %15
w: low- li- ness of his hand-|mai- den. For be-|hold, _ from|hence- forth all|ge- ne- ra- tions|
 c2!>(! =F2 A2!>)! A2 | E E3- E2 z2 | z2!mf! E2!<(! ^G2 B!<)!B | (B4 !tenuto!^c2) B2 | %19
w: _ shall call me|bles- sed. _|For he that is|migh- * ty|
 z2 d2 AA B2 |"^Ped."!>(! B4!>)! z2 B2 |!<(! (f4!<)! ^d2 f2 | ^d2) B2!>(! B3!>)! B | ^A4 z4 | %24
w: hath mag- ni- fied|me: and|ho- * *|* ly is his|Name.|
"^S.A." z4!mp! z2!<(! GF!mp! | D2!<)! =F2 _AGA_B |!>(! =F2 F4!>)!!<(! F!<)!F |!<(! d4!<)! e3 c | %28
w: ||||
 d2 d2 z4 |!mf! z2 EB (A!<(!B)!<)! B2!mf! | dB B2!<(! Bd!<)! d^c/B/ | (^c B2)!f! B BB c>B!f! | %32
w: ||||
 _BBBG"^sempre f" B4"^sempre f" | z _e2 d _B2 =B2- | BFED EF E z/ E/ | FG _B2- B c2 _e | %36
w: ||||
[M:3/4] _e2 =f"^un poco rall."e- ee |[M:4/4] =d4!mp! z2 DE!mp! |[M:3/4] (B2!<(! A3)!<)! d | %39
w: |||
 B2!<(! B3!<)! d |[M:2/4] (!tenuto!d2 c2) |[M:3/4]!>(! =B4!>)! DD | %42
w: |||
[M:4/4]!<(! (B2 c2!<)! _B>)B dB | A>A!>(! AA-!>)!"^un poco rall." A2 z2 | %44
w: ||
!mp! z2!<(! B3 _B!<)!(cB) | G=F _B2 B3 B |[M:3/4]!mf! _B2!<(! =B3!<)! B |!f! d3 _B- B2 | %48
w: ||||
 c_B-!>)!!>(! B4 |[M:4/4]!mf! z2 ^cd!<(! (BAB)!<)!c | AG(AB) E2!>(! G2-!>)! | G4 z2!mp! c_B | %52
w: ||||
!<(! (G=F)G!<)!A (B4 |"^rall." ^d2) B2 B2 B2- | B4 !fermata!z4 ||"^Tempo primo" x2!mf!!mf! | %56
w: ||||
!<(! G3!<)! A B2 Bd |!>(! ^c!>)!B z!<(! B e!<)!c B2 | z A!<(!d^c!<)! B>B B2 | %59
w: |||
[M:2/4]!mf! z (E F)^G |[M:3/4]!<(! (A2!<)! c2) BA/G/ |[M:4/4] A A2 A!<(! c(B/c/)!<)! dc/d/ | %62
w: |||
 e2 e2 z!<(! (^c^B)!<)!^G | ^A2 ^c4!f! c2 |!<(! =d8-!<)!!fine! | !fermata!d6 |] %66
w: ||||
[M:5/4]"^S.A.""^Moderato"[Q:1/4=100][Q:1/4=100] z10 |"^NUNC DIMITTIS" z10 |[M:3/4]!mp! z2 E2 F2 | %69
w: |||
!<(! EF ^G2!<)! B2 | F2 F3 F | ^G4!>(! E2 | F4!>)!!<(! ^G2 | F!<)!E F2 ^G2 |!>(! B6!>)! | z2 B3 B | %76
w: |||||||
 F4 F2 |!<(! ^G2 B2!<)!!mf! G2 | ^c4 _B2- | B2 z2 =c2 |!<(! d2 c2 G2!<)! | A3 A BA | %82
w: ||||||
!<(! c4!<)! c2 | (d2 B4) | A2!>)!!>(! A4 | z2!mf! z A AB |!<(! c4!<)! c2 | d3 c d2 | A2 A4 | %89
w: |||||||
 z2!f! F=F _Bc |!<(! _e4!<)! _c2- | c2 B^c de | B3 B B2- | B2 z2 z2 | z6 | z6 | z6 | z6 | z6 || %99
w: ||||||||||
[M:4/4]"^Come prima" x2!mf!!mf! |!<(! G3 A!<)! B2 Bd |!>(! ^c!>)!B z!<(! B e!<)!c B2 | %102
w: |||
 z A!<(!d^c!<)! B>B B2 |[M:2/4]!mf! z (E F)^G |[M:3/4]!<(! (A2!<)! c2) BA/G/ | %105
w: |||
[M:4/4] A A2 A c(B/c/) dc/d/ | e2 e2 z!<(! (^c^B)!<)!^G | ^A2 ^c4!f! c2 |!<(! =d8-!<)!!fine! | %109
w: ||||
 !fermata!d6 |] %110
w: |
V:2
 z8 | z8 | z8 | z8 | z8 | z8 | z8 | z8 | z8 | z8 | z8 | z8 | z8 | z8 | z8 | z8 | z8 | z8 | z8 | %19
 z8 | z8 | z8 | z8 | z8 | x8 | x8 |!>(! x8!>)! |!<(! x8!<)! | x8 | x8 | x8 | x8 | x8 | %33
 z _E2 D _B,2 =B,2- | B,F,E,D, E,F, E, z/ E,/ | F,G, _B,2- B, C2 C |[M:3/4]!>(! x6!>)! | %37
[M:4/4] x8 |[M:3/4] x6 | x6 |[M:2/4] x4 |[M:3/4]!>(! x6!>)! |[M:4/4]!<(! B,2 C2!<)! _B,>B, DB, | %43
 A,>A,!>(! A,A,-!>)!"^un poco rall." A,2 z2 |!mp! z2!<(! B,3 _B,!<)!CB, | G,=F, _B,2 B,3 B, | %46
[M:3/4]!mf! _B,2!<(! =B,3!<)! B, |!f! D3 _B,- B,2 | C_B,-!>)!!>(! B,4 |[M:4/4]!mf! z2 ^CD B,A,B,C | %50
 A,G,A,B, E,2!>(! G,2-!>)! | G,4 z2!mp! C_B, | G,=F,G,A, B,4 |"^rall." ^D2 B,2 B,2 B,2- | %54
 B,4 !fermata!z4 || x2 |!<(! G,3!<)! A, B,2 B,D |!>(! ^C!>)!B, z!<(! B, E!<)!C B,2 | %58
 z A,!<(!D^C!<)! B,>B, B,2 |[M:2/4]!mf! z E, F,^G, |[M:3/4]!<(! A,2!<)! C2 B,A,/G,/ | %61
[M:4/4] A, A,2 A,!<(! CB,/C/!<)! DC/D/ | E2 E2 z!<(! ^C^B,!<)!^G, | ^A,2 ^C4!f! C2 | =D8- | %65
 !fermata!D6 |][M:5/4]"^T.B." z10 | z10 |[M:3/4]!mp! z2 E,2 F,2 | E,F, ^G,2 B,2 | F,2 F,3 F, | %71
 ^G,4 E,2 | F,4!<(! ^G,2 | F,!<)!E, F,2 ^G,2 |!>(! B,6!>)! | z2 B,3 B, | F,4 F,2 | %77
!<(! ^G,2 B,2!<)!!mf! G,2 | ^C4 B,2- | _B,2 z2 =C2 |!<(! D2 C2 G,2!<)! | A,3 A, B,A, | %82
!<(! C4!<)! C2 | D2 B,4 | A,2!>)!!>(! A,4 | z2!mf! z A, A,B, |!<(! C4!<)! C2 | D3 C D2 | A,2 A,4 | %89
 z2!f! F,=F, _B,C |!<(! _E4!<)! _C2- | C2 B,^C DE | B,3 B, B,2- | B,2 z2 z2 | z6 | z6 | z6 | z6 | %98
 z6 ||[M:4/4] x2 |!<(! G,3 A,!<)! B,2 B,D |!>(! ^C!>)!B, z!<(! B, E!<)!C B,2 | %102
 z A,!<(!D^C!<)! B,>B, B,2 |[M:2/4]!mf! z E, F,^G, |[M:3/4]!<(! A,2!<)! C2 B,A,/G,/ | %105
[M:4/4] A, A,2 A, CB,/C/ DC/D/ | E2 E2 z!<(! ^C^B,!<)!^G, | ^A,2 ^C4!f! C2 | =D8- | D6 |] %110
V:3
 x8 | x8 | x8 | x8 | x8 | x8 | x8 | x8 | x8 | x8 | x8 | x8 | x8 | x8 | x8 | x8 | x8 | x8 | x8 | %19
w: |||||||||||||||||||
 x8 | x8 | x8 | x8 | x8 | x6 G=F | D2 =F2 _AGA_B | =F2 F4 FF | =F4 G3 E | =F2 F2 x4 | %29
w: |||||And his|mer- cy is on them that|fear him through- out|all ge- ne-|ra- tions.|
 x2 EB (AB) B2 | dB B2 Bd d^c/B/ | (^c B2) B BB c>B | _BBBG B4 | x _E2 D _B,2 =B,2- | %34
w: He hath shewn * strength|with his arm: he hath scat- ter'd the|proud _ in the im- a- gi-|na- tion of their hearts.|He hath put down|
 B,FED EF E x/ E/ | FG _B2- B B2 G |[M:3/4] (F2 ^E)(F ^G)F |[M:4/4] =G4 x2 DE |[M:3/4] (B2 A3) d | %39
w: _ the migh- ty from their seat: and|hath ex- al- * ted the|hum- * ble _ and|meek. He hath|fill'd _ the|
 B2 B3 d |[M:2/4] (d2 c2) |[M:3/4] B4 DD |[M:4/4] (_B2 c2 B>)B _dB | A>A AA- A2 x2 | x2 _B3 B(cB) | %45
w: hun- gry with|good _|things: and the|rich _ _ he hath sent|emp- ty a- way. *|He re- mem- *|
 G=F _B2 B3 B |[M:3/4] _B2 =B3 B | _B3 B- B2 | c_B- B4 |[M:4/4] x2 ^cd (BAB)c | AG(AB) E2 G2- | %51
w: b'ring his mer- cy hath|hol- pen his|ser- vant _|Is- rael: *|As he pro- * * mis'd|to our fore- * fa- thers,|
 G4 x2 c_B | (G=F)GA =B4- | B2 B2 B2 B2 | B4 x4 || z2 | G3 A B2 Bd | ^cB z B BA B2 | %58
w: * A- bra-|ham _ and his seed,|_ for e- ver.|||Glo- ry be to the|Fa- ther, and to the Son:|
 z Ad^c B>B B2 |[M:2/4] z (E F)E |[M:3/4] (=F2 A2) GG/G/ |[M:4/4] G =F2 F A(G/A/) BA/B/ | %62
w: and to the Ho- ly Ghost;|As _ it|was _ in the be-|gin- ning, is now, and _ e- ver _|
 ^c2 c2 z (c^B)^G | F2 ^A4 ^c2 | d8 | d6 |][M:5/4] x10 | x10 |[M:3/4] x2 E2 F2 | EF ^G2 B2 | %70
w: shall be: world _ with-|out end. A-|men.~||||Lord, now|let- test thou thy|
 F2 F3 F | ^G4 E2 | F4 ^G2 | FE F2 ^G2 | B6 | x2 B3 B | F4 F2 | ^G2 B2 G2 | ^c4{_d} _B2- | %79
w: ser- vant de-|part in|peace: ac-|cord- ing to thy|word.|For mine|eyes have|seen thy sal-|va- *|
 B2 x2 c2 | d2 c2 G2 | A3 A BA | c4 c2 | (d2 B4) | A2 A4 | x3 A AB | c4 c2 | d3 c d2 | A2 A4 | %89
w: * Which|thou hast pre-|par'd be- fore the|face of|all _|peo- ple;|To be a|light to|light- en the|Gen- tiles:|
 x2 =FF _Bc | _e4 _c2- | c2 =B^c de | B3 B B2- | B2 x4 | x6 | x6 | x6 | x6 | x6 ||[M:4/4] z2 | %100
w: and to be the|glo- ry|_ of thy peo- ple|Is- ra- el.||||||||
 G3 A B2 Bd | ^cB x B BA B2 | x Ad^c B>B B2 |[M:2/4] x (E F)E |[M:3/4] (=F2 A2) GG/G/ | %105
w: Glo- ry be to the|Fa- ther, and to the Son:|and to the Ho- ly Ghost;|As _ it|was _ in the be-|
[M:4/4] G =F2 F A(G/A/) BA/B/ | ^c2 c2 x (c^B)^G | F2 ^A4 ^c2 | d8 | d6 |] %110
w: gin- ning, is now, and _ e- ver _|shall be: world _ with-|out end. A-|men.|_|
V:4
 x8 | x8 | x8 | x8 | x8 | x8 | x8 | x8 | x8 | x8 | x8 | x8 | x8 | x8 | x8 | x8 | x8 | x8 | x8 | %19
 x8 | x8 | x8 | x8 | x8 | z4 z2"^T.B."!<(! G,F, | D,2!<)! =F,2 _A,G,A,_B, | =F,2 F,4!<(! F,!<)!F, | %27
 _B,4 B,3 B, | _B,2 B,2 z4 | z2 E,B, A,!<(!B,!<)! B,2 | DB, B,2!<(! B,D!<)! D^C/B,/ | %31
 ^C B,2 B, B,B, C>B, | _B,B,B,G, B,4 | x8 | x8 | x8 |[M:3/4] =B,3 B, B,2 |[M:4/4] =B,4 z2 D,E, | %38
[M:3/4] B,2!<(! A,3!<)! D | B,2!<(! B,3!<)! D |[M:2/4] D2 C2 |[M:3/4] =B,4 D,D, |[M:4/4] x8 | x8 | %44
 x8 | x8 |[M:3/4] x6 | x6 | x6 |[M:4/4] x8 | x8 | x8 | x8 | x8 | x8 || x2 | x8 | x8 | x8 | %59
[M:2/4] x4 |[M:3/4] x6 |[M:4/4] x8 | x8 | x8 | x8 | x6 |][M:5/4] x10 | x10 |[M:3/4] x6 | x6 | x6 | %71
 x6 | x6 | x6 | x6 | x6 | x6 | x6 | x6 | x6 | x6 | x6 | x6 | x6 | x6 | x6 | x6 | x6 | x6 | x6 | %90
 x6 | x6 | x6 | x6 | x6 | x6 | x6 | x6 | x6 ||[M:4/4] x2 | x8 | x8 | x8 |[M:2/4] x4 |[M:3/4] x6 | %105
[M:4/4] x8 | x8 | x8 | x8 | x6 |] %110
V:5
 x8 | x8 | x8 | x8 | x8 | x8 | x8 | x8 | x8 | x8 | x8 | x8 | x8 | x8 | x8 | x8 | x8 | x8 | x8 | %19
w: |||||||||||||||||||
w: |||||||||||||||||||
 x8 | x8 | x8 | x8 | x8 | x6 G,=F, | D,2 =F,2 _A,G,A,_B, | =F,2 F,4 F,F, | _B,4 B,3 B, | %28
w: |||||||||
w: |||||||||
 _B,2 B,2 x4 | x2 E,B, A,B, B,2 | DB, B,2 B,D D^C/B,/ | ^C B,2 B, B,B, C>B, | _B,B,B,G, B,4 | x8 | %34
w: ||||||
w: ||||||
 x8 | x8 |[M:3/4] B,3 B, B,2 |[M:4/4] B,4 x2 D,E, |[M:3/4] B,2 A,3 D | B,2 B,3 D |[M:2/4] D2 C2 | %41
w: |||||||
w: ||hum- ble and|meek. * *||||
[M:3/4] B,4 D,D, |[M:4/4] x8 | x8 | x8 | x8 |[M:3/4] x6 | x6 | x6 |[M:4/4] x8 | x8 | x8 | x8 | x8 | %54
w: |||||||||||||
w: |||||||||||||
 x8 || x2 | x8 | x8 | x8 |[M:2/4] x4 |[M:3/4] x6 |[M:4/4] x8 | x8 | x8 | x8 | x6 |][M:5/4] x10 | %67
w: |||||||||||||
w: |||||||||||||
 x10 |[M:3/4] x6 | x6 | x6 | x6 | x6 | x6 | x6 | x6 | x6 | x6 | x6 | x6 | x6 | x6 | x6 | x6 | x6 | %85
w: ||||||||||||||||||
w: ||||||||||||||||||
 x6 | x6 | x6 | x6 | x6 | x6 | x6 | x6 | x6 | x6 | x6 | x6 | x6 | x6 ||[M:4/4] x2 | x8 | x8 | x8 | %103
w: ||||||||||||||||||
w: ||||||||||||||||||
[M:2/4] x4 |[M:3/4] x6 |[M:4/4] x8 | x8 | x8 | x8 | x6 |] %110
w: |||||||
w: |||||||
V:6
 x8 | x8 | x8 | x8 | x8 | x8 | x8 | x8 | x8 | x8 | x8 | x8 | x8 | x8 | x8 | x8 | x8 | x8 | x8 | %19
 x8 | x8 | x8 | x8 | x8 | x8 | x8 | x8 | x8 | x8 | x8 | x8 | x8 | x8 | x _E2 D _B,2 =B,2- | %34
 B,F,E,D, E,F, E, x/ E,/ | F,G, _B,2- B, B,2 B, |[M:3/4] x6 |[M:4/4] x8 |[M:3/4] x6 | x6 | %40
[M:2/4] x4 |[M:3/4] x6 |[M:4/4] _B,2 C2 B,>B, _DB, | A,>A, A,A,- A,2 x2 | x2 _B,3 B,CB, | %45
 G,=F, _B,2 B,3 B, |[M:3/4] _B,2 =B,3 B, | _B,3 B,- B,2 | C_B,- B,4 |[M:4/4] x2 ^CD B,A,B,C | %50
 A,G,A,B, E,2 G,2- | G,4 x2 C_B, | G,=F,G,A, =B,4- | B,2 B,2 B,2 B,2 | B,4 x4 || z2 | %56
 G,3 A, B,2 B,D | ^CB, z B, B,A, B,2 | z A,D^C B,>B, B,2 |[M:2/4] z E, F,E, | %60
[M:3/4] =F,2 A,2 G,G,/G,/ |[M:4/4] G, =F,2 F, A,G,/A,/ B,A,/B,/ | ^C2 C2 z C^B,^G, | F,2 ^A,4 ^C2 | %64
 D8 | D6 |][M:5/4] x10 | x10 |[M:3/4] x2 E,2 F,2 | E,F, ^G,2 B,2 | F,2 F,3 F, | ^G,4 E,2 | %72
 F,4 ^G,2 | F,E, F,2 ^G,2 | B,6 | x2 B,3 B, | F,4 F,2 | ^G,2 B,2 G,2 | ^C4{_D} _B,2- | B,2 x2 C2 | %80
 D2 C2 G,2 | A,3 A, B,A, | C4 C2 | D2 B,4 | A,2 A,4 | x3 A, A,B, | C4 C2 | D3 C D2 | A,2 A,4 | %89
 x2 =F,F, _B,C | _E4 _C2- | C2 =B,^C DE | B,3 B, B,2- | B,2 x4 | x6 | x6 | x6 | x6 | x6 || %99
[M:4/4] z2 | G,3 A, B,2 B,D | ^CB, x B, B,A, B,2 | x A,D^C B,>B, B,2 |[M:2/4] x E, F,E, | %104
[M:3/4] =F,2 A,2 G,G,/G,/ |[M:4/4] G, =F,2 F, A,G,/A,/ B,A,/B,/ | ^C2 C2 x C^B,^G, | F,2 ^A,4 ^C2 | %108
 D8 | D6 |] %110
V:7
"^Andante tranquillo"!p!"^MAGNIFICAT" z8 | z2 GF!<(! D3-!<)! [DE] | z2 ^c^B ^G3 ^A | [GB]6 z2 | %4
 z4"^Gt" ed^cd | BA B6 | B8 |"^Sw" [GB-]8 | [FB]8 |"^Gt" geaf b!<(!deB-!<)! | %10
 e!>(!fdB d2!>)!"^Sw" e2 | [A^c]6 Ac |!<(! ^d2 e4!<)! ^c2 | ^d2 e4"^Gt" z2 | =f!<(!dge a!<)!cfA | %15
 c=F-FD EFDC |"^Sw" z2!mf! ^G^A BAGB | ^cB"^cresc."^de cB^AB | GB^cB dBcd- | [Dd]DE=F GFEF | %20
 B^d^c^e dB[^Gc]B"^Ped." | f2 ^d2 ^e2 f2 | ^g^a f2 ^e2 ^d2 | %23
 z2!mp! =FE C3 D-"^cresc.""^Sw""^Ped." | G=FEF!>)!!>(! D4- | D4 _A2 _F2 | %26
"^Gt" z2 =f"^cresc."e c3 d | z2 _ag e=fdc |!mf!"^Sw" z =fd_d _BA=B_A | %29
 [E=G]B,D^C!<(! B,A,^G,!<)!=G, | F,^G,^A,G, A,2 ^CD |!f! ED/^C/ D2 C2 B,^A, | [G,D]G F>E ^DE F>E | %33
 [_E_B] z z2 z2[K:bass]!mf! E,^F, | G,A,[K:treble]B,^C DCB,D | ^CB,!<(!_B,=C =F_E-!<)![EF]-[EF_B] | %36
[M:3/4]!>(! =B6"^un poco rall.""^Man." | x2!>)! %37
[M:4/4]"^Gt"!mp! [Ed][Fe][GB][FA] [Ed][GB][EA][D-B] | %38
[M:3/4] [DE][B,G] [^CE][B,D] [CE]"^cresc."[EA] | [FB][DG] [EA][GB] [Ad][Ge] | %40
[M:2/4] !tenuto![_B_g][_A_e] [B=f][_Ge] |[M:3/4] [Ad][G=B] [A^c][GB]"^Sw" [FA][EG]"^Man." | %42
[M:4/4]!<(! _E=F_GF!<)! _AGFE | =F_G!>(!_ED!>)! C"^un poco rall."D-[D-F][CD-] | %44
 [=F,_B,D]4"^Gt" z4"^Sw""^Ped." | g!<(!=fef d!<)!cde- |[M:3/4] e!<(!^g fe f!<)!g | %47
!mf! [=g_b][_Bd] [Ag][Gc] [=F-d][DF] | [CE][D=F] [EG][DF-] [F-A][DF] | %49
[M:4/4]!mp! [EA][GB][A^c][Gd]!<(! [FB][EA][DG]!<)![^CE] | %50
 [B,-DFA][B,EG][^CF-][DF] [Ed][G=c][FB][Ec] | [FB][EG][DF][B,G-] [CG][D_B][=F-G][_EF] | %52
!<(!!<(! [DG][Cc][D_B]!<)![_E-c]!<)! [^D^c]!>(![^E^d][F-=B]!>)![EF] | %53
 [^D-B]"^rall."[^CD-][D-^E][DF] [=Ed][Fe][GB][FA] | [Ed]!>(![GB][A^c-][cd]!>)! !fermata![Be]4 || %55
"^Tempo primo"!mf! GF |!<(! D_E!<)!B,G, F,A,^G,E, | z8 | z C_B,E FA^GE |[M:2/4] ^CB, A,B, | %60
[M:3/4] [E=FA]2 [Ac]2 BA/G/ |[M:4/4] A A3"^cresc." cB/c/ dc/d/ | [^ce]4 z2!f! F^G | %63
 [F^A]4 !>![A^c]2 !>!A2 |!ff! d3 ^c ^A!<)!!<(! B3- | !fermata!B6 |] %66
[M:5/4]!mp!"^Moderato" (B,6 ^C4 | B,6 E4)"^simile" |[M:3/4] B,6 |!<(! E6!<)! | B,6 | E6 | B,6 | %73
 B,6 |"^legato"!<(! E2 F2!<)! E2 |!>(! ^D2 E2!>)! F2 | ^D6 |"^cresc." E4 A,2 | [_B,C]4 [B,_E]2 | %79
 [=F,_B,][F,G,C] [B,_E]2 [G,C=F]2 | [A,CDG]6 | [A,CDE]6 | [CD=F]6 | [B,EG]6 | %84
!<(! [C=Fc][Dd] [F=f]2 [Gg]2!<)! |"^brilliante" a2- a2- a2 | %86
!mf! (3z [=Fc][Gd] [Fe]2- (3[Fe][Ed][Fe] | (3z [Ed][=Fe] [Ed]2- (3[Ed][Dc][Ed] | %88
 (3z!<(! [CA][DB] (3[Ec][DB][Ec]!<)! (3[Bcg][GB=f][=FAe]"^legato" | %89
"^forte" [=F_e-]2 [Be]2 (3[Gc=f][F_Be][Gcf] | (3:2:2z g2- [_A_d_g]2 (3[d=f_a][_eg_b][dfa] | %91
!ff! (3([_d=f_b][=B=dg]).[GBd] (3([=F_B_d][DG=B]).[F_Bd] (3([G=B=d][A^ce]).[GBd] | %92
 (3z!f! [EB][F^c] (3[^G^d][Fc][Gd]- (3[Gd][Fc][Gd] | %93
!mf! (3z [E^G][F^A] (3[GB][FA][GB] (3[FA][EG][B,E] | %94
"^dim." (3z [B,E]B, (3:2:2^C2 [B,E]- (3:2:2[B,E] [CF]2 |"^Sw" ^G2- G2- G2- | %96
"^rall." [FG-]4 [CG]2-"^(Ped)" | [EG-]2 [F-G]2 [FA]2- |!p! !fermata![FA]4 z2 || %99
[M:4/4]"^Come prima" GF |!<(! D_E!<)!B,G, F,A,^G,E, | z8 | z C_B,E FA^GE |[M:2/4] ^CB, A,B, | %104
[M:3/4] [E=FA]2 [Ac]2 BA/G/ |[M:4/4] A A3 cB/c/ dc/d/ | [^ce]4 z2!f! F^G | [F^A]4 !>![A^c]2 !>!A2 | %108
!ff! d3 ^c ^A!<)!!<(! B3- | !fermata!B6 |] %110
V:8
"^Sw""^Ped." x8 | x8 | x8 | x8 | x8 | x8 | x8 |"^Gt" z8 |"^Ped.""^Sw" x8 | x8 | x8 |"^Gt" z8 | z8 | %13
"^Sw""^Ped." x8 | x8 | x8 | z8 | x8 | x8 | x8 | x8 | x8 | x8 | x8 | x8 | x8 | x8 | x8 | z8 | %29
"^Man." x8 | x8 | x8 | x8 | x8 | x8 | x8 |[M:3/4] x6 |[M:4/4] x8 |[M:3/4]"^Ped." x6 | x6 | %40
[M:2/4] x4 |[M:3/4] x6 |[M:4/4] _E,=F,_G,F, _A,G,F,E, | =F,_G,_E,D, x4 | x8 | x8 |[M:3/4] x6 | x6 | %48
 x6 |[M:4/4] x8 | x8 | x8 | x8 | x8 | x8 ||"^Man." G,F, | D,_E,B,,G,, F,,A,,^G,,E,, | %57
 [F,,F,][A,,A,][G,,G,][F,,F,] [E,,E,][F,,F,][A,,A,][G,,G,] | [=F,,=F,]C,_B,,E, ^F,A,^G,E, | %59
[M:2/4] ^C,B,,"^Ped." A,,B,, |[M:3/4] [=F,A,]2 [A,C]2 [G,-B,][G,-A,]/G,/- | %61
[M:4/4] [G,A,] [=F,A,]3 [A,C][G,B,]/[A,C]/ [B,D][A,C]/[B,D]/ | [^CE]4 =A,2 F,2- | %63
 [F,^A,]4- [^D,F,A,^C]4 | z D2 ^C [D,B,-^D]4 | [=D,G,B,]6 |][M:5/4]"^Sw""^Ped." x10 | x10 | %68
[M:3/4] x6 | x6 | x6 | x6 | x6 | x6 | x6 |"^simile" x6 | x6 | x6 | x6 | x6 | x6 |!<(! x6!<)! | x6 | %83
 x6 | x6 |"^Gt" z2 ^c2 =B2 | x6 | x6 | x6 | x6 | x6 | x6 | x6 | x6 | x6 | x6 | x6 | x6 | x6 || %99
[M:4/4]!mf!"^Man." G,F, | D,_E,B,,G,, F,,A,,^G,,E,, | %101
 [F,,F,][A,,A,][G,,G,][F,,F,] [E,,E,][F,,F,][A,,A,][G,,G,] | [=F,,=F,]C,_B,,E, ^F,A,^G,E, | %103
[M:2/4] ^C,B,,"^Ped." A,,B,, |[M:3/4] [=F,A,]2 [A,C]2 [G,-B,][G,-A,]/G,/- | %105
[M:4/4] [G,A,] [=F,A,]3 [A,C][G,B,]/[A,C]/ [B,D][A,C]/[B,D]/ | [^CE]4 =A,2 F,2- | %107
 [F,^A,]4- [^D,F,A,^C]4 | z D2 ^C [D,B,-^D]4 | [=D,G,B,]6 |] %110
V:9
 z2 G,F, D,3- [D,E,]- | [D,-E,-A,]6 [D,-E,B,]2 | [D,-F,-^A,]6 [D,-F,^B,]2 | [D,G,B,]6 [D,G,]2- | %4
 [D,G,]6 G,2 | ^G,8 | D4 E4 | z2 B,^C DCB,C | B,4 A,4 | [D,B,]8 | [B,,G,]8 | z2 ^C^D EDCB, | %12
 [^D^E]3 [DE] F4 | [A,C^DG]4 [G,A,CE]4 | [C,A,]8 | [A,,=F,]8 | z2 ^G,^A, B,A,G,B, | [B,-^C]8 | %18
 B,4- [G,B,]4 | [=F,A,]8 | [B,-^D]2 [B,-^E]2 [B,-F]2"^Man." [A,B,E]2 | [^D,^G,B,]8- | [D,G,B,]8 | %23
 z2 =F,E, C,2 D,2 | =E,2 =A,2 G,=F,E,F,- | F,4 _F,2 _A,2 | [=F,_B,D]6 [F,B,D]2- | %27
 [F,B,-D]4 [G,B,C]2- [G,B,CE]2 | z =FD_D _B,A,=B,_A, | [E,B,]B,,D,^C, B,,A,,^G,,=G,, | %30
 F,,^G,,^A,,G,,!<(! A,,2!<)! ^C,D, | E,D,/^C,/ D,2 C,2 B,,^A,, | %32
 [G,,D,]G, F,>E, ^D,E, F,>"^Ped."E, | [_E,_B,] z =B,2 =G,2 _E,,^F,, | G,,A,,B,,^C, D,C,B,,D, | %35
 ^C,B,,_B,,=C, =F,_E,-[E,F,]-[E,F,_B,] |[M:3/4] z ^C ^D4 |[M:4/4] [G,B,]8- | %38
[M:3/4] [D,G,-B,-]4 [G,B,D]2- | [G,B,-D-]4 [B,DG]2 |[M:2/4] [_G,-_B,-C_E]2 [G,B,=D-]2 | %41
[M:3/4] [G,B,D]4 D2 |[M:4/4] x8 | x4 C,D,-[D,-=F,][C,D,] | =E, D,3 [D,=F,_B,D]4- | %45
 [D,F,B,D]6 [=F,-_B,D-]2 |[M:3/4] [F,-^G,=B,D-E]6 | [F,_B,D]6- | [F,B,D]6 |[M:4/4] [D,G,B,]8 | %50
 [B,,G,]4 [G,,E,]4 | [B,,G,-]4 [_E,G,]4- | [E,G,]4 [^F,=B,]4- | [F,B,]4 [=D,B,]4- | [D,B,]8 || x2 | %56
 x8 | x8 | x8 |[M:2/4] x4 |[M:3/4] x6 |[M:4/4] x8 | x8 | x8 | x8 | x6 |][M:5/4] [E,F,]6 [F,^G,]4 | %67
 [E,F,]6 [E,A,]4 |[M:3/4] [E,F,]6 | [E,A,]6 | [E,F,]6 | [E,A,]6 | [E,F,]6 | [E,A,]6 | %74
 [E,A,]2 [F,B,]2 [E,A,]2 | [^G,^C]2 [E,A,]2 [F,B,]2 | [^G,^C]6 | [E,A,]4 E,2 | =F,6 | %79
 _E,E, =F,2 [C,E,]2 | [A,,C,=E,]6 | [C,E,G,]6 | [D,=F,A,]6 | [D,E,G,]6 | [D,=F,A,]6 | x6 | %86
 (3z [D,A,][E,B,] [A,C]2- (3[A,C][G,B,][A,C] | (3z [G,B,][A,C] [G,B,]2- (3[G,B,][=F,A,][G,B,] | %88
 (3z [D,=F,][E,G,] (3[F,A,][E,G,][F,A,] (3[A,C][B,D][CE] | %89
 [=F,_B,_E]-[F,_A,B,E]- [F,A,B,E]2 [F,B,][A,E] | z2 (3=F_D_E- [_CE_G_A]2 | %91
 [D,G,B,][=F,_B,_D] [=D,G,=B,][F,_B,D] [=D,G,=B,][E,A,^C] | %92
 (3z [^C,^G,][^D,^A,] (3[E,B,][D,A,][E,B,]- (3[E,B,][D,A,][E,B,] | %93
 (3z [^C,B,][^D,^C] (3[E,^D][D,C][E,D] (3[D,C][C,B,][D,^G,] | %94
 (3z ^G,[^D,F,] (3:2:2[^E,G,]2 G,- (3:2:2G, ^A,2 | z2 (3=C-[B,C-][^^F,B,-C]"^Ped." [^G,B,]2- | %96
 (3[F,-G,-B,][F,-G,-^A,][F,G,B,]-!>)!!>(! [F,G,B,]4 | [D,F,A,]6- | [D,F,A,]4 z2 ||[M:4/4] x2 | x8 | %101
 x8 | x8 |[M:2/4] x4 |[M:3/4] x6 |[M:4/4] x8 | x8 | x8 | x8 | x6 |] %110
V:10
 G,,8- | G,,8- | G,,8- | G,,6 G,,2- | G,,6 G,2 | ^C,8 | G,8 | x8 | A,F,E,F, ^C, B,,3 | G,,8 | %10
 E,,8 | x8 | [A,-^B,]4 [A,^C]4 | z2 z C, F,E,D,C, | =F,,8 | D,,8 | x8 | z2 ^A,2 ^G,2 F,2- | %18
 F,2 E,2 D,2 ^C,2 | A,,8 | A,6 A,,2 | ^G,,8- | G,,8 | z4 z2 =F,,2- | F,,8 | _B,,8- | B,,8- | B,,8 | %28
 x8 | x8 | x8 | x8 | x8 | _E,,2 =B,,2 =G,,2 =E,,2- | E,,2 D,,6- | D,,2 z2 z4 |[M:3/4] =B,6 | %37
[M:4/4] D,8 |[M:3/4] D,,6- | D,,6 |[M:2/4] _E,,2 _E,2 |[M:3/4] D,4 D,2 |[M:4/4] x8 | x8 | =F,,8- | %45
 F,,8- |[M:3/4] F,,6- | F,,6- | F,,6 |[M:4/4] D,,8 | E,,4 =C,,4 | E,,4 _B,,4- | B,,4 =A,,4- | %53
 A,,4 G,,4- | !fermata!G,,8 || x2 | x8 | x8 | x8 |[M:2/4] x4 |[M:3/4] x6 |[M:4/4] x8 | x8 | x8 | %64
 x8 | x6 |][M:5/4] z2 !tenuto!B,,2 !tenuto!F,,2 !tenuto!^G,,2 !tenuto!^C,,2 | %67
 z2 B,,2 F,,2 ^G,,2 ^C,,2 |[M:3/4] z2 B,,2 F,,2 | ^G,,2 C,,2 G,,2 | z2 B,,2 F,,2 | %71
 ^G,,2 C,,2 G,,2 | z2 B,,2 F,,2 | z2 ^C,2 F,,2 | !tenuto!^G,,2 !tenuto!^C,,2 !tenuto!G,,2 | %75
 A,,2 ^G,,2 ^C,,2 | z2 ^A,,2 ^D,,2 | ^G,,2 C,,2 G,,2 | _B,,2 _E,,2 B,,2 | C,2 _B,,2 G,,2 | %80
 z2 A,,2 D,,2 | z2 A,,2 D,,2 | z2 A,,2 D,,2 | z2 A,,2 D,,2 | z2 D,2 G,,2 | x6 | %86
 z2 !tenuto!A,,2 !tenuto!D,,2 | z2 A,,2 D,,2 | z2 C,2 =F,,2 | _E,,2 C,2 _B,,2 | z2 z2 _A,,2 | %91
 D,,6 | z2 !tenuto!B,,2 !tenuto!E,,2 | z2 !tenuto!^G,,2 !tenuto!^C,,2 | A,,4 ^C,,2 | %95
 z2 z2 (3^G,^^F,^D, | ^C,2 A,,4- | [D,,A,,]6- | !fermata![D,,A,,]4 x2 ||[M:4/4] x2 | x8 | x8 | x8 | %103
[M:2/4] x4 |[M:3/4] x6 |[M:4/4] x8 | x8 | x8 | x8 | x6 |] %110
V:11
 x8 | x8 | [^CF]8 | D6 [B,D]2- | [B,D]6 [B,D]2 | ^E8 | GFEF G4 | D8- | D8 | AB^ce d-cB-A | %10
 BAB-A G2 F2 | F6 A2 | [^G^B]B [A^c]4 =B2 | [Ac]c- [Ac]4 x2 | GABd c-BA-G | =FED-C B,CA,B, | x8 | %17
 [E^G]8 | [=D-=G]8 | x8 | F2 ^G2 B2 x2 | ^A^cB^d cB^ed | ^e2 ^d^c- cB^AB | z4 z2 [=F,_B,-]2 | %24
 [B,-D]2 B,2- B,4- | B,4 _D4 | x8 | x8 | x8 | x8 | x8 | x8 | x8 | x6[K:bass] E,2- | %34
 E,2[K:treble] G,6- | G,2 x2 z4 |[M:3/4] z ^E- EF ^G^A |[M:4/4] x8 |[M:3/4] x6 | x6 |[M:2/4] x4 | %41
[M:3/4] x6 |[M:4/4] x8 | x8 | x8 | x8 |[M:3/4] x6 | x6 | x6 |[M:4/4] x8 | x8 | x8 | x8 | x8 | x8 || %55
 x2 | x8 | x8 | x8 |[M:2/4] x4 |[M:3/4] C2 [E=F]2 G2- |[M:4/4] G =F3 AG/A/ BA/B/ | ^G4 x2 FG | %63
 ^C4 F2 (^EF) | z4 ^E F3 | [=DG]6 |][M:5/4] x10 | x10 |[M:3/4] x6 | x6 | x6 | x6 | x6 | x6 | x6 | %75
 x6 | x6 | x6 | x6 | x6 | x6 | x6 | x6 | x6 | x6 | (3a^ge fg [c=f]2 | x6 | x6 | x6 | %89
 (3_e_A-[A_B-] (3=FG!<)!!<(!F x2 | (3z _g_c- cc x2 | x6 | x6 | x6 | x6 | (3^G^^F^D ^E=F =E2 | %96
 ^C4- (3EFE- | C2 D4- | D4 x2 ||[M:4/4] x2 | x8 | x8 | x8 |[M:2/4] x4 |[M:3/4] C2 [E=F]2 G2- | %105
[M:4/4] G =F3 AG/A/ BA/B/ | ^G4 x2 FG | ^C4 F2 (^EF) | z4 ^E F3 | [=DG]6 |] %110
V:12
 x8 | x8 | x8 | x8 | x8 | x8 | x8 | x8 | x8 | x8 | x8 | x8 | x8 | x8 | x8 | x8 | x8 | x8 | x8 | %19
 x8 | x8 | x8 | x8 | x8 | x8 | x8 | x8 | x8 | x8 | x8 | x8 | x8 | x8 | x8 | x8 | x8 |[M:3/4] x6 | %37
[M:4/4] x8 |[M:3/4] x6 | x6 |[M:2/4] x4 |[M:3/4] x6 |[M:4/4] x8 | x8 | x8 | x8 |[M:3/4] x6 | x6 | %48
 x6 |[M:4/4] x8 | x8 | x8 | x8 | x8 | x8 || x2 | x8 | x8 | x8 |[M:2/4] z2 z B,,- | %60
[M:3/4] B,,A,, E,,D,, G,,A,, |[M:4/4] B,,A,,/G,,/ A,,E,, D,,=F,,A,,D, | %62
 ^D,E,/^C,/ ^B,,/C,/^A,, =A,,2 F,,2- | F,,^D,^B,,^A,, ^G,,A,,B,,A,, | z2 D,2 ^D,^D,,!>!^E,,!>!D,, | %65
 !fermata!G,,6 |][M:5/4] x10 | x10 |[M:3/4] x6 | x6 | x6 | x6 | x6 | x6 | x6 | x6 | x6 | x6 | x6 | %79
 x6 | x6 | x6 | x6 | x6 | x6 | x2 (3^c^B^G (3=BAE | x6 | x6 | x6 | x6 | x6 | x6 | x6 | x6 | x6 | %95
 x6 | x6 | x6 | x6 ||[M:4/4] x2 | x8 | x8 | x8 |[M:2/4] z2 z B,,- |[M:3/4] B,,A,, E,,D,, G,,A,, | %105
[M:4/4] B,,A,,/G,,/ A,,E,, D,,=F,,A,,D, | ^D,E,/^C,/ ^B,,/C,/^A,, =A,,2 F,,2- | %107
 F,,^D,^B,,^A,, ^G,,A,,B,,A,, | z2 D,2 ^D,^D,,!>!^E,,!>!D,, | !fermata!G,,6 |] %110

